icons/group-line.svg

<svg xmlns="http://www.w3.org/2000/svg" width="24" height="24" fill="none"><g clip-path="url(#a)"><g><path fill="#121212" d="M2 22C2 19.8783 2.84285 17.8434 4.34315 16.3431C5.84344 14.8429 7.87827 14 10 14C12.1217 14 14.1566 14.8429 15.6569 16.3431C17.1571 17.8434 18 19.8783 18 22H16C16 20.4087 15.3679 18.8826 14.2426 17.7574C13.1174 16.6321 11.5913 16 10 16C8.4087 16 6.88258 16.6321 5.75736 17.7574C4.63214 18.8826 4 20.4087 4 22H2ZM10 13C6.685 13 4 10.315 4 7C4 3.685 6.685 1 10 1C13.315 1 16 3.685 16 7C16 10.315 13.315 13 10 13ZM10 11C12.21 11 14 9.21 14 7C14 4.79 12.21 3 10 3C7.79 3 6 4.79 6 7C6 9.21 7.79 11 10 11ZM18.284 14.703C19.6893 15.3359 20.882 16.3612 21.7186 17.6557C22.5552 18.9502 23.0002 20.4587 23 22H21C21.0002 20.844 20.6666 19.7125 20.0391 18.7416C19.4116 17.7707 18.5171 17.0017 17.463 16.527L18.283 14.703H18.284ZM17.596 3.413C18.6035 3.8283 19.465 4.53354 20.071 5.43923C20.6771 6.34492 21.0004 7.41024 21 8.5C21.0004 9.87233 20.4877 11.1952 19.5625 12.2088C18.6374 13.2224 17.3667 13.8535 16 13.978V11.965C16.7409 11.8589 17.4283 11.518 17.9613 10.9925C18.4943 10.4669 18.8447 9.78432 18.9612 9.04493C19.0776 8.30555 18.954 7.5483 18.6084 6.88435C18.2628 6.22041 17.7134 5.68475 17.041 5.356L17.596 3.413Z"/></g></g><defs><clipPath id="a"><rect width="24" height="24" fill="white"/></clipPath></defs></svg>

<svg width="24" height="24" fill="none" xmlns="http://www.w3.org/2000/svg"><g clip-path="url(#a)"><path d="M2 22a8 8 0 0 1 16 0h-2a6 6 0 1 0-12 0H2Zm8-9c-3.315 0-6-2.685-6-6s2.685-6 6-6 6 2.685 6 6-2.685 6-6 6Zm0-2c2.21 0 4-1.79 4-4s-1.79-4-4-4-4 1.79-4 4 1.79 4 4 4Zm8.284 3.703A8.002 8.002 0 0 1 23 22h-2a6 6 0 0 0-3.537-5.473l.82-1.824h.001Zm-.688-11.29a5.5 5.5 0 0 1 1.966 8.796A5.499 5.499 0 0 1 16 13.978v-2.013a3.5 3.5 0 0 0 1.041-6.609l.555-1.943Z" /></g><defs><clipPath id="a"><path fill="#fff" d="M0 0h24v24H0z"/></clipPath></defs></svg>
